svg/clockface/clockfacesolid/clock_02_05.svg

<?xml version="1.0" encoding="UTF-8" standalone="no"?>
<svg
   height="1000"
   width="1000"
   version="1.1"
   id="h00m00"
   viewBox="0 0 1000 1000"
   sodipodi:docname="solid_clock_02_05.svg"
   xmlns:inkscape="http://www.inkscape.org/namespaces/inkscape"
   xmlns:sodipodi="http://sodipodi.sourceforge.net/DTD/sodipodi-0.dtd"
   xmlns="http://www.w3.org/2000/svg"
   xmlns:svg="http://www.w3.org/2000/svg">
  <defs
     id="defs10" />
  <sodipodi:namedview
     id="namedview8"
     pagecolor="#505050"
     bordercolor="#ffffff"
     borderopacity="1"
     inkscape:showpageshadow="0"
     inkscape:pageopacity="0"
     inkscape:pagecheckerboard="1"
     inkscape:deskcolor="#505050" />
  <path
     id="path14"
     style="color:#000000;fill:#000000;stroke-width:60;-inkscape-stroke:none"
     d="M 500 130 C 296.01059 130 130 296.01059 130 500 C 130 703.98941 296.01059 870 500 870 C 703.98941 870 870 703.98941 870 500 C 870 296.01059 703.98941 130 500 130 z M 635 236.17188 A 30 30 0 0 1 650 240.19141 A 30 30 0 0 1 660.98047 281.17383 L 581.96094 418.03906 L 640.88477 384.01953 A 30 30 0 0 1 681.86523 395 A 30 30 0 0 1 670.88477 435.98047 L 515 525.98047 A 30.003 30.003 0 0 1 470.11914 497.38477 A 30.003 30.003 0 0 1 474.01953 485 L 609.01953 251.17383 A 30 30 0 0 1 635 236.17188 z " />
</svg>

<svg xmlns="http://www.w3.org/2000/svg" width="1000" height="1000"><path d="M500 130c-203.99 0-370 166.01-370 370s166.01 370 370 370 370-166.01 370-370-166.01-370-370-370zm135 106.172a30 30 0 0 1 15 4.02 30 30 0 0 1 10.98 40.982l-79.02 136.865 58.925-34.02A30 30 0 0 1 681.865 395a30 30 0 0 1-10.98 40.98L515 525.98a30.003 30.003 0 0 1-44.88-28.595 30.003 30.003 0 0 1 3.9-12.385l135-233.826A30 30 0 0 1 635 236.172z" style="-inkscape-stroke:none" stroke-width="60"/></svg>
